X:1
T:Brown Gal in the Ring
M:4/4
L:1/8
K:C
 CD| E2 E2 ED C2| ED EF G2 A,C| D2 D2 DC B,2| G3 AG F| ED| E2 E2 ED C2|\
 ED EF G2 GG| c2 GF EF ED| C2 c2 c2||
